X:26
T:Oberon in Fairyland
M:2/4
L:1/8
Q:115
K:C
G |\
"C"ce/d/ cG |\
"C"EC GG |\
"C"cG "F"dc/B/ |\
"G"BA G z |\
"C"ce/d/ cG |\
"C"EC GA/B/ |\
"C"cG "F"AG/F/ |\
"G"ED "C"C :|\
E |\
"Am"EA/^G/ AB |\
"Am"cA "E"Be |\
"Am"eA "Dm"f/e/d/c/ |\
"E"B/c/B/A/ A^G |\
"Am"EA/^G/ AB |\
"Am"cA "E"Be |\
"Am"eA "Dm"f/e/d/c/ |\
"E"B/c/B/A/ "Am"A=G |\
"C"ce/d/ cG |\
"C"EC GG |\
"C"cG "F"dc/B/ |\
"G"BA G z |\
"C"ce/d/ cG |\
"C"EC GG |\
"C"cG "F"AG/F/ |\
ED "C"C ||
